icons/4_Outdated/Gandi v1.svg

<svg width="1024" height="1024" fill="none" xmlns="http://www.w3.org/2000/svg"><g clip-path="url(#a)"><path d="M512 1024c282.77 0 512-229.23 512-512S794.77 0 512 0 0 229.23 0 512s229.23 512 512 512Z" fill="#96DFD3"/><path d="M657.17 374.431a31.905 31.905 0 0 0-35.444-.986 31.905 31.905 0 0 0-9.046 8.556c-12.5 17.67-26.34 30.77-42.09 39.82a110.605 110.605 0 0 1-4.41 2.4c-1.37.71-2.76 1.39-4.16 2-14.7 6.81-31.08 10.39-50 11-18.93-.57-35.32-4.15-50-11-19.37-9-35.94-23.45-50.67-44.26a31.911 31.911 0 0 0-44.485-7.615 31.915 31.915 0 0 0-7.615 44.485c21 29.73 46.59 51.7 75.94 65.3a173.658 173.658 0 0 0 17.67 7.05c-24.93 18-51.88 43.23-64.79 77.82-13.4 35.9-13.23 74.76.47 109.44 13.11 33.35 37.46 60.41 68.46 76.27 34.58 17.68 78.6 17.72 117.75.09 41.08-18.49 67.88-52.35 71.69-90.59 4-40.25-15.3-76.08-49.17-91.3-35.08-15.76-74.66-4.51-100.82 28.64a31.896 31.896 0 0 0-6.642 23.504 31.903 31.903 0 0 0 11.922 21.316 31.921 31.921 0 0 0 23.504 6.643 31.914 31.914 0 0 0 21.316-11.923c7.77-9.85 16.73-13.48 24.58-10 6.69 3 13.29 11.62 11.79 26.76-1.5 15-14.67 29.83-34.37 38.7-21.32 9.59-45.28 10.08-62.51 1.27-17.23-8.81-30.77-24-38.2-42.82-5.58-14.12-10.12-36.64 0-63.66 7.57-20.26 26.64-39.38 60-60.15 14.17-8.82 29.37-17 44.06-25 16.95-9.17 33-17.86 47.11-27.18 25.1-13.73 47.18-33.92 65.75-60.16a31.91 31.91 0 0 0-7.61-44.48l.02.06Zm-162.24-60.08a21.638 21.638 0 0 1 36.009 9.025 21.641 21.641 0 0 1-10.511 25.365 21.632 21.632 0 0 1-14.423 2.137 21.634 21.634 0 0 1-12.505-7.498 21.634 21.634 0 0 1-4.91-13.729 21.488 21.488 0 0 1 6.34-15.3Zm15.3 89a73.658 73.658 0 0 0 64.978-108.374 73.657 73.657 0 0 0-86.341-35.777 73.658 73.658 0 0 0-51.932 77.703 73.655 73.655 0 0 0 21.215 44.868 73.166 73.166 0 0 0 52.08 21.54v.04Z" fill="#fff"/></g><defs><clipPath id="a"><path fill="#fff" d="M0 0h1024v1024H0z"/></clipPath></defs></svg>

<svg width="1024" height="1024" viewBox="0 0 1024 1024" fill="none" xmlns="http://www.w3.org/2000/svg">
<g clip-path="url(#clip0_3_551)">
<path d="M512 1024C794.77 1024 1024 794.77 1024 512C1024 229.23 794.77 0 512 0C229.23 0 0 229.23 0 512C0 794.77 229.23 1024 512 1024Z" fill="#96DFD3"/>
<path d="M657.17 374.431C653.752 372.007 649.889 370.28 645.804 369.348C641.718 368.416 637.488 368.299 633.357 369.002C629.226 369.704 625.273 371.214 621.726 373.445C618.178 375.675 615.104 378.583 612.68 382.001C600.18 399.671 586.34 412.771 570.59 421.821C569.137 422.655 567.667 423.455 566.18 424.221C564.81 424.931 563.42 425.611 562.02 426.221C547.32 433.031 530.94 436.611 512.02 437.221C493.09 436.651 476.7 433.071 462.02 426.221C442.65 417.221 426.08 402.771 411.35 381.961C406.461 375.052 399.027 370.369 390.685 368.941C382.342 367.513 373.774 369.457 366.865 374.346C359.956 379.236 355.272 386.669 353.844 395.012C352.416 403.354 354.361 411.922 359.25 418.831C380.25 448.561 405.84 470.531 435.19 484.131C440.947 486.802 446.846 489.156 452.86 491.181C427.93 509.181 400.98 534.411 388.07 569.001C374.67 604.901 374.84 643.761 388.54 678.441C401.65 711.791 426 738.851 457 754.711C491.58 772.391 535.6 772.431 574.75 754.801C615.83 736.311 642.63 702.451 646.44 664.211C650.44 623.961 631.14 588.131 597.27 572.911C562.19 557.151 522.61 568.401 496.45 601.551C493.854 604.841 491.931 608.61 490.791 612.642C489.651 616.675 489.317 620.893 489.808 625.055C490.298 629.217 491.603 633.241 493.649 636.899C495.694 640.556 498.44 643.775 501.73 646.371C505.02 648.967 508.788 650.89 512.821 652.03C516.854 653.17 521.072 653.504 525.234 653.014C529.395 652.523 533.42 651.218 537.078 649.173C540.735 647.127 543.954 644.381 546.55 641.091C554.32 631.241 563.28 627.611 571.13 631.091C577.82 634.091 584.42 642.711 582.92 657.851C581.42 672.851 568.25 687.681 548.55 696.551C527.23 706.141 503.27 706.631 486.04 697.821C468.81 689.011 455.27 673.821 447.84 655.001C442.26 640.881 437.72 618.361 447.84 591.341C455.41 571.081 474.48 551.961 507.84 531.191C522.01 522.371 537.21 514.191 551.9 506.191C568.85 497.021 584.9 488.331 599.01 479.011C624.11 465.281 646.19 445.091 664.76 418.851C669.649 411.944 671.594 403.377 670.167 395.035C668.74 386.694 664.057 379.261 657.15 374.371L657.17 374.431ZM494.93 314.351C498.471 310.811 503.129 308.609 508.112 308.119C513.094 307.629 518.092 308.881 522.255 311.663C526.417 314.445 529.486 318.585 530.939 323.376C532.392 328.167 532.138 333.314 530.222 337.939C528.305 342.564 524.844 346.382 520.428 348.741C516.013 351.101 510.915 351.856 506.005 350.878C501.095 349.901 496.675 347.251 493.5 343.38C490.324 339.51 488.589 334.658 488.59 329.651C488.582 326.808 489.139 323.992 490.227 321.366C491.315 318.74 492.914 316.355 494.93 314.351ZM510.23 403.351C527.272 403.354 543.787 397.447 556.962 386.638C570.137 375.829 579.157 360.785 582.484 344.072C585.811 327.358 583.239 310.007 575.208 294.977C567.176 279.946 554.182 268.165 538.438 261.642C522.694 255.118 505.176 254.255 488.867 259.2C472.559 264.145 458.469 274.592 449 288.761C439.53 302.929 435.266 319.943 436.935 336.903C438.603 353.863 446.101 369.72 458.15 381.771C464.976 388.626 473.094 394.059 482.033 397.757C490.972 401.454 500.556 403.342 510.23 403.311V403.351Z" fill="white"/>
</g>
<defs>
<clipPath id="clip0_3_551">
<rect width="1024" height="1024" fill="white"/>
</clipPath>
</defs>
</svg>
